X: 2402
T: JEANIE WITH THE LIGHT BROWN HAIR
R: Sand Jig.
%R: air, sand jig, march
B: James Kerr "Merry Melodies" v.2 p.45 #402
Z: 2016 John Chambers <jc:trillian.mit.edu>
M: C
L: 1/8
K: G
e2 |\
d3B cBAG | B2D>E G4 |\
G2A>B g2e2 | dBAG A2e2 |\
d3B cBAG | B2D>E G4 |\
A^cde fgBe |[1 d2^c2d2 :|[2 d2^c2d2z2 ||
A>BA^G A2B>A | G2G>B d4 |\
e>deg d2B>A | G2E2 D2e2 |\
d3B cBAG | B2D>E G4 |\
G2A>B g2e2 | d>BAB G2 |]
